X: 200
T: The Golden Ticket
C:Eric Merrill
B: canberra pickers and fiddlers
B: old time tunes update
B: tunes
M:C|
L:1/8
R: reel
Q: 1/4=100
K:G
V:1 
|:\
"G"DF-F2 G3F | GFDC B,A,G,B, | "C"C2CD EDCD | "D"A,2-A,B, A,DED |
"G"DF-F2 G3F | GFDC B,A,G,B, | "C"C2CE DB,CE |1 "G"D2G,2- "D"G,DED :|2 "D"D2A,2- A,2 AA ||
|:\
"G"AB-BA BABc | BAGF GFDG | "C"E3B cBcd | "D"A2AB AA FD |
"G"AB-BA BABc | BAGF GFDB, | "C"C2CE DB,CE |1 "G"D2G,2 "D"A2G2 :|2 "G"D2G,2- G,4 |]
% abcbook-tune_id 67a7d9ec0a855d214de65268
% abcbook-tune_composer_id 
% abcbook-link-0 https://www.youtube.com/watch?v=B8nROWWss_A
% abcbook-link-title-0 The Golden Ticket
% abcbook-boost 0
% abcbook-difficulty 0
% abcbook-tags old time tunes
% abcbook-tablature 
% abcbook-transpose 
% abcbook-tuning GDAE
% abcbook-lastupdated 1739245122856
% abcbook-src-url 
% abcbook-soundfonts 
% abcbook-repeats 1


